X: 26155
T: McIntyre's Fancy
R: jig
M: 6/8
K: Adorian
cde AGE|GAB ~A3|eag edc|~e3 AGE|
c2 e dcA|~G3 Gcd|e2a ged|cAG A2B|
c2 e AGE|GAB ~A3|a2g edc|~e3 AGE|
c2 e dcA|~G3 Gcd|e2a ged|cAG Aeg|
|:~a3 ged|d~e3dc|~A3 G2c|d2e deg|
aeg dec|~A3 ~G3|cde ged|1 cAG Aeg:|2 cAG A3||

